Papirus/32x32/mimetypes/application-x-sega-cd-rom.svg

<svg width="32" height="32" version="1.1" xmlns="http://www.w3.org/2000/svg">
 <path d="m6.375 3c-0.76175 0-1.375 0.6244-1.375 1.4v25.2c0 0.77504 0.61325 1.4 1.375 1.4h19.25c0.7612 0 1.375-0.62496 1.375-1.4v-17.6l-7-2-2-7z" style="opacity:.2"/>
 <path d="m6.375 2c-0.76175 0-1.375 0.6244-1.375 1.4v25.2c0 0.77504 0.61325 1.4 1.375 1.4h19.25c0.7612 0 1.375-0.62496 1.375-1.4v-17.6l-7-2-2-7z" style="fill:#4f4f4f"/>
 <path d="m27 12-9-9v7.59375c0 0.779625 0.62775 1.40625 1.40625 1.40625z" style="opacity:.2"/>
 <path d="m27 11-9-9v7.59375c0 0.779625 0.62775 1.40625 1.40625 1.40625z" style="fill:#696969"/>
 <path d="M 6.375,2 C 5.61325,2 5,2.6247906 5,3.4003906 v 1 C 5,3.6247906 5.61325,3 6.375,3 H 18 V 2 Z" style="fill:#ffffff;opacity:.2"/>
 <path d="m13.99878 17.394867c-5.7955701 1.552919-8.1757157 4.261235-7.6580372 6.193082 0.5176785 1.931846 3.9330252 3.087266 9.7285962 1.534346 0.482964-0.129409 0.482963-0.12941-0.129411-0.482964-3.993123 0.552315-6.3132096-0.378938-6.7014388-1.827832-0.3882298-1.448892 1.1553978-3.415424 4.8836348-4.956307 0.0062 0.02297 0.359621-0.589735-0.123344-0.460325zm1.931857-0.517638c-0.482963 0.129409 0.129497 0.483291 0.123344 0.460325 3.99919-0.529676 6.319316 0.401567 6.707545 1.850463 0.388229 1.448893-1.155438 3.415435-3.976195 4.532187l-1.85409-5.040524c-0.612336-0.353566-0.482966 0.12941-0.482966 0.12941l0.940545 5.442015c0.09807 0.366014 0.1227 0.453671 0.338684 0.418801 0.0334-0.0053 0.07047-0.01278 0.114013-0.02351 3.77e-4 -9.3e-5 5.78e-4 -1.63e-4 9.66e-4 -2.59e-4 0.04625-0.01141 0.0987-0.02541 0.158708-0.04149 5.79557-1.552919 8.17569-4.261228 7.658064-6.193089-0.517627-1.93186-3.933051-3.087257-9.728622-1.534339z" style="opacity:.2"/>
 <path d="m13.99878 16.395111c-5.7955701 1.552919-8.1757157 4.261235-7.6580372 6.193082 0.5176785 1.931846 3.9330252 3.087266 9.7285962 1.534346 0.482964-0.129409 0.482963-0.12941-0.129411-0.482964-3.993123 0.552315-6.3132096-0.378938-6.7014388-1.827832-0.3882298-1.448892 1.1553978-3.415424 4.8836348-4.956307 0.0062 0.02297 0.359621-0.589735-0.123344-0.460325zm1.931857-0.517638c-0.482963 0.129409 0.129497 0.483291 0.123344 0.460325 3.99919-0.529676 6.319316 0.401567 6.707545 1.850463 0.388229 1.448893-1.155438 3.415435-3.976195 4.532187l-1.85409-5.040524c-0.612336-0.353566-0.482966 0.12941-0.482966 0.12941l0.940545 5.442015c0.09807 0.366014 0.1227 0.453671 0.338684 0.418801 0.0334-0.0053 0.07047-0.01278 0.114013-0.02351 3.77e-4 -9.3e-5 5.78e-4 -1.63e-4 9.66e-4 -2.59e-4 0.04625-0.01141 0.0987-0.02541 0.158708-0.04149 5.79557-1.552919 8.17569-4.261228 7.658064-6.193089-0.517627-1.93186-3.933051-3.087257-9.728622-1.534339z" style="fill:#fecd38"/>
</svg>

<svg xmlns="http://www.w3.org/2000/svg" width="32" height="32" version="1.1">
 <path style="opacity:0.2" d="m6.375 3c-0.76175 0-1.375 0.6244-1.375 1.4v25.2c0 0.77504 0.61325 1.4 1.375 1.4h19.25c0.7612 0 1.375-0.62496 1.375-1.4v-17.6l-7-2-2-7z"/>
 <path style="fill:#4f4f4f" d="m6.375 2c-0.76175 0-1.375 0.6244-1.375 1.4v25.2c0 0.77504 0.61325 1.4 1.375 1.4h19.25c0.7612 0 1.375-0.62496 1.375-1.4v-17.6l-7-2-2-7z"/>
 <path style="opacity:0.2" d="m27 12-9-9v7.59375c0 0.779625 0.62775 1.40625 1.40625 1.40625z"/>
 <path style="fill:#696969" d="m27 11-9-9v7.59375c0 0.779625 0.62775 1.40625 1.40625 1.40625z"/>
 <path style="fill:#ffffff;opacity:0.1" d="M 6.375,2 C 5.61325,2 5,2.6247906 5,3.4003906 v 1 C 5,3.6247906 5.61325,3 6.375,3 H 18 V 2 Z"/>
 <path style="opacity:0.1" d="M 13.999,17.396 C 8.2032,18.949 5.8231,21.657 6.3407,23.589 6.8584,25.521 10.274,26.676 16.069,25.123 16.552,24.994 16.552,24.994 15.94,24.64 11.947,25.193 9.6267,24.261 9.2385,22.812 8.8503,21.364 10.394,19.397 14.122,17.856 14.128,17.879 14.482,17.266 13.999,17.396 Z M 15.931,16.878 C 15.448,17.008 16.06,17.362 16.054,17.339 20.053,16.809 22.373,17.74 22.762,19.189 23.15,20.638 21.606,22.604 18.785,23.721 L 16.931,18.681 C 16.319,18.327 16.448,18.81 16.448,18.81 L 17.389,24.252 C 17.487,24.618 17.512,24.706 17.728,24.671 17.761,24.666 17.798,24.658 17.842,24.647 17.842,24.647 17.842,24.647 17.842,24.647 17.889,24.636 17.941,24.622 18.001,24.606 23.797,23.053 26.177,20.344 25.659,18.413 25.142,16.481 21.726,15.325 15.931,16.878 Z"/>
 <path style="fill:#fecd38" d="M 13.999,16.396 C 8.2032,17.949 5.8231,20.657 6.3407,22.589 6.8584,24.521 10.274,25.676 16.069,24.124 16.552,23.994 16.552,23.994 15.94,23.641 11.947,24.193 9.6267,23.262 9.2385,21.813 8.8503,20.364 10.394,18.397 14.122,16.856 14.128,16.879 14.482,16.267 13.999,16.396 Z M 15.931,15.878 C 15.448,16.008 16.06,16.362 16.054,16.339 20.053,15.809 22.373,16.74 22.762,18.189 23.15,19.638 21.606,21.605 18.785,22.721 L 16.931,17.681 C 16.319,17.327 16.448,17.81 16.448,17.81 L 17.389,23.252 C 17.487,23.618 17.512,23.706 17.728,23.671 17.761,23.666 17.798,23.658 17.842,23.648 17.842,23.648 17.842,23.647 17.842,23.647 17.889,23.636 17.941,23.622 18.001,23.606 23.797,22.053 26.177,19.345 25.659,17.413 25.142,15.481 21.726,14.326 15.931,15.878 Z"/>
</svg>
